_includes/icons/color-microsoft-word.svg

<svg fill="#666" height="50" viewBox="0 0 48 48" width="50" xmlns="http://www.w3.org/2000/svg"><path d="m41 10h-16v28h16c.554688 0 1-.445312 1-1v-26c0-.554687-.445312-1-1-1z" fill="#2196f3"/><g fill="#fff"><path d="m25 15h14v2h-14z"/><path d="m25 19h14v2h-14z"/><path d="m25 23h14v2h-14z"/><path d="m25 27h14v2h-14z"/><path d="m25 31h14v2h-14z"/></g><path d="m27 42-21-4v-28l21-4z" fill="#0d47a1"/><path d="m21.167969 31.011719h-2.71875l-1.800781-8.988281c-.097657-.476563-.15625-.996094-.175782-1.574219h-.03125c-.042968.636719-.109375 1.160156-.195312 1.574219l-1.851563 8.988281h-2.828125l-2.859375-14.015625h2.675782l1.535156 9.328125c.0625.40625.113281.941406.144531 1.609375h.042969c.015625-.5.097656-1.050781.222656-1.644531l1.96875-9.292969h2.621094l1.785156 9.40625c.0625.347656.121094.84375.171875 1.507812h.03125c.019531-.511718.070313-1.03125.160156-1.5625l1.5-9.351562h2.46875z" fill="#fff"/></svg>

<svg xmlns="http://www.w3.org/2000/svg" viewBox="0 0 48 48" width="50" height="50" fill="#666"><path d="M 41 10 L 25 10 L 25 38 L 41 38 C 41.554688 38 42 37.554688 42 37 L 42 11 C 42 10.445313 41.554688 10 41 10 Z" fill="#2196f3"/><path d="M 25 15 L 39 15 L 39 17 L 25 17 Z" fill="#fff"/><path d="M 25 19 L 39 19 L 39 21 L 25 21 Z" fill="#fff"/><path d="M 25 23 L 39 23 L 39 25 L 25 25 Z" fill="#fff"/><path d="M 25 27 L 39 27 L 39 29 L 25 29 Z" fill="#fff"/><path d="M 25 31 L 39 31 L 39 33 L 25 33 Z" fill="#fff"/><path d="M 27 42 L 6 38 L 6 10 L 27 6 Z" fill="#0d47a1"/><path d="M 21.167969 31.011719 L 18.449219 31.011719 L 16.648438 22.023438 C 16.550781 21.546875 16.492188 21.027344 16.472656 20.449219 L 16.441406 20.449219 C 16.398438 21.085938 16.332031 21.609375 16.246094 22.023438 L 14.394531 31.011719 L 11.566406 31.011719 L 8.707031 16.996094 L 11.382813 16.996094 L 12.917969 26.324219 C 12.980469 26.730469 13.03125 27.265625 13.0625 27.933594 L 13.105469 27.933594 C 13.121094 27.433594 13.203125 26.882813 13.328125 26.289063 L 15.296875 16.996094 L 17.917969 16.996094 L 19.703125 26.402344 C 19.765625 26.75 19.824219 27.246094 19.875 27.910156 L 19.90625 27.910156 C 19.925781 27.398438 19.976563 26.878906 20.066406 26.347656 L 21.566406 16.996094 L 24.035156 16.996094 Z" fill="#fff"/></svg>
